X: 689a
T: My Last Days On Earth 
C: Bill Monroe (standard tuning)
S: MandoZine TablEdit Archives 
Z: Converted to Standard tuning & TablEdited by Jim Coon & Mike Stangeland
L: 1/8
Q: 200
M: 3/4
K: Dm
 z3A, A,C | "Part A""Dm"[D/4D/4][D/4D/4][D/4D/4][D/4D/4][D/4D/4][D/4D/4][D/4D/4][D/4D/4] [DD][DD] (3DCA, |
 "F"E/4F/4F/4F/4F/4F/4F/4F/4 FF (3FGF | "C"E/4E/4E/4E/4E/4E/4E/4E/4 EF (3E/F/E/_D |
 "Dm"D/4D/4D/4D/4D/4D/4D/4D/4 DD A,C | [D/4D/4][D/4D/4][D/4D/4][D/4D/4][D/4D/4][D/4D/4][D/4D/4][D/4D/4] [DD][DD] (3DCA, |
 "G"[d/4=B/4][d/4=B/4][d/4=B/4][d/4=B/4][d/4=B/4][d/4=B/4][d/4=B/4][d/4=B/4] [d/4=B/4][d/4=B/4][d/4=B/4][d/4=B/4][d/4=B/4][d/4=B/4][d/4=B/4][d/4=B/4] [d=B][d=B] |
 "A"[e/4_d/4A/4][e/4_d/4A/4][e/4_d/4A/4][e/4_d/4A/4][e/4_d/4A/4][e/4_d/4A/4][e/4_d/4A/4][e/4_d/4A/4] [e/4_d/4A/4][e/4_d/4A/4][e/4_d/4A/4][e/4_d/4A/4][e/4_d/4A/4][e/4_d/4A/4][e/4_d/4A/4][e/4_d/4A/4] [e_dA][e_dA] |
 [e/4_d/4A/4][e/4_d/4A/4][e/4_d/4A/4][e/4_d/4A/4][e/4_d/4A/4][e/4_d/4A/4][e/4_d/4A/4][e/4_d/4A/4] [e_dA][e_dA] A,C |
 "Dm"[D/4D/4][D/4D/4][D/4D/4][D/4D/4][D/4D/4][D/4D/4][D/4D/4][D/4D/4] [DD][DD] (3DCA, |
 "F"E/4E/4F/4F/4F/4F/4F/4F/4 FF (3FGF | "C"E/4E/4E/4E/4E/4E/4E/4E/4 EF (3E/F/E/D |
 "Dm"D/4D/4D/4D/4D/4D/4D/4D/4 DD A,C | D/4D/4D/4D/4D/4D/4D/4D/4 DD (3FED | "A"E/4E/4E/4E/4E/4E/4E/4E/4 EE (3FED |
 "Dm"[D/4D/4][D/4D/4][D/4D/4][D/4D/4][D/4D/4][D/4D/4][D/4D/4][D/4D/4] [D/4D/4][D/4D/4][D/4D/4][D/4D/4][D/4D/4][D/4D/4][D/4D/4][D/4D/4] [DD][DD] |
 [D/4D/4][D/4D/4][D/4D/4][D/4D/4][D/4D/4][D/4D/4][D/4D/4][D/4D/4] 
 [D/4D/4][D/4D/4][D/4D/4][D/4D/4][D/4D/4][D/4D/4][D/4D/4][D/4D/4] [DD][DD] ||

 "Part B""G"[d/4=B/4][d/4=B/4][d/4=B/4][d/4=B/4][d/4=B/4][d/4=B/4][d/4=B/4][d/4=B/4] [d/4=B/4][d/4=B/4][d/4=B/4][d/4=B/4][d/4=B/4][d/4=B/4][d/4=B/4][d/4=B/4] [d=B][d=B] |
 "A"[e/4_d/4A/4][e/4_d/4A/4][e/4_d/4A/4][e/4_d/4A/4][e/4_d/4A/4][e/4_d/4A/4][e/4_d/4A/4][e/4_d/4A/4] [e/4_d/4A/4][e/4_d/4A/4][e/4_d/4A/4][e/4_d/4A/4][e/4_d/4A/4][e/4_d/4A/4][e/4_d/4A/4][e/4_d/4A/4] [e_dA][e_dA] |
 "Dm"[f/4d/4][f/4d/4][f/4d/4][f/4d/4][f/4d/4][f/4d/4][f/4d/4][f/4d/4] [f/4d/4][f/4d/4][f/4d/4][f/4d/4][f/4d/4][f/4d/4][f/4d/4][f/4d/4] [fd][fd] |
 [f/4d/4][f/4d/4][f/4d/4][f/4d/4][f/4d/4][f/4d/4][f/4d/4][f/4d/4] [fd][fd] DD | "G"[d/4=B/4][d/4=B/4][d/4=B/4][d/4=B/4][d/4=B/4][d/4=B/4][d/4=B/4][d/4=B/4] [d/4=B/4][d/4=B/4][d/4=B/4][d/4=B/4][d/4=B/4][d/4=B/4][d/4=B/4][d/4=B/4] [d=B][d=B] |
 "A"[e/4_d/4A/4][e/4_d/4A/4][e/4_d/4A/4][e/4_d/4A/4][e/4_d/4A/4][e/4_d/4A/4][e/4_d/4A/4][e/4_d/4A/4] [e/4_d/4A/4][e/4_d/4A/4][e/4_d/4A/4][e/4_d/4A/4][e/4_d/4A/4][e/4_d/4A/4][e/4_d/4A/4][e/4_d/4A/4] [e_dA][e_dA] |
 "Dm"[f/4d/4][f/4d/4][f/4d/4][f/4d/4][f/4d/4][f/4d/4][f/4d/4][f/4d/4] [f/4d/4][f/4d/4][f/4d/4][f/4d/4][f/4d/4][f/4d/4][f/4d/4][f/4d/4] [fd][fd] |
 "Dm"[f/4d/4][f/4d/4][f/4d/4][f/4d/4][f/4d/4][f/4d/4][f/4d/4][f/4d/4] [f/4d/4][f/4d/4][f/4d/4][f/4d/4][f/4d/4][f/4d/4][f/4d/4][f/4d/4] [fd][fd] |
 "Gm"[c'/4a/4][c'/4a/4][c'/4a/4][c'/4a/4][c'/4a/4][c'/4a/4][c'/4a/4][c'/4a/4] [c'a][c'a] [c'/4a/4][c'/4a/4][c'/4a/4][c'/4a/4][c'/4a/4][c'/4a/4][c'/a/] |
 [b/4g/4][b/4g/4][b/4g/4][b/4g/4][b/4g/4][b/4g/4][b/4g/4][b/4g/4] [bg][bg] [c'a][bg] |
 "Dm"[_a/4f/4][_a/4f/4][_a/4f/4][_a/4f/4][_a/4f/4][_a/4f/4][_a/4f/4][_a/4f/4] [_af][_af] (3_agf |
 [f/4d/4][f/4d/4][f/4d/4][f/4d/4][f/4d/4][f/4d/4][f/4d/4][f/4d/4] [fd]D (3DGA | [f/4d/4][f/4d/4][f/4d/4][f/4d/4][f/4d/4][f/4d/4][f/4d/4][f/4d/4] [fd][fd] _a/4_a/4g/4g/4f/4f/4f/ |
 "A"[g/4e/4][g/4e/4][g/4e/4][g/4e/4][g/4e/4][g/4e/4][g/4e/4][g/4e/4] [ge][fd] _a/4_a/4g/4g/4_a/4_a/4_a/4_a/4 |
 "Dm"[f/4d/4][f/4d/4][f/4d/4][f/4d/4][f/4d/4][f/4d/4][f/4d/4][f/4d/4] [f/4d/4][f/4d/4][f/4d/4][f/4d/4][f/4d/4][f/4d/4][f/4d/4][f/4d/4] [fd][fd] |
 [f/4d/4][f/4d/4][f/4d/4][f/4d/4][f/4d/4][f/4d/4][f/4d/4][f/4d/4] [fd]D (3DGA ||

 "Part C"[f/4d/4][f/4d/4][f/4d/4][f/4d/4][f/4d/4][f/4d/4][f/4d/4][f/4d/4]
  [f/4d/4][f/4d/4][f/4d/4][f/4d/4][f/4d/4][f/4d/4][f/4d/4][f/4d/4] (3fed |
 "F"[b/4g/4][=b/4_a/4][c'/4=a/4][c'/4a/4][c'/4a/4][c'/4a/4][c'/4a/4][c'/4a/4] [c'/4a/4][c'/4a/4][c'/4a/4][c'/4a/4][c'/4a/4][c'/4a/4][c'/a/] [_bg][_af] |
 "Am"[b/4g/4][=b/4_a/4][c'/4=a/4][c'/4a/4][c'/4a/4][c'/4a/4][c'/4a/4][c'/4a/4] [c'/4a/4][c'/4a/4][c'/4a/4][c'/4a/4][c'/4a/4][c'/4a/4][c'/a/] [_bg][_af] |
 "Dm"[f/4d/4][f/4d/4][f/4d/4][f/4d/4][f/4d/4][f/4d/4][f/4d/4][f/4d/4] [fd]D (3Ac_d |
 "Dm"[f/4d/4][f/4d/4][f/4d/4][f/4d/4][f/4d/4][f/4d/4][f/4d/4][f/4d/4]
  [f/4d/4][f/4d/4][f/4d/4][f/4d/4][f/4d/4][f/4d/4][f/d/] [fd][fd] |
 "F"[b/4g/4][=b/4_a/4][c'/4=a/4][c'/4a/4][c'/4a/4][c'/4a/4][c'/4a/4][c'/4a/4] [c'/4a/4][c'/4a/4][c'/4a/4][c'/4a/4][c'/4a/4][c'/4a/4][c'/a/] [_bg][_af] |
 "Am"[b/4g/4][=b/4_a/4][c'/4=a/4][c'/4a/4][c'/4a/4][c'/4a/4][c'/4a/4][c'/4a/4] [c'/4a/4][c'/4a/4][c'/4a/4][c'/4a/4][c'/4a/4][c'/4a/4][c'/4a/4][c'/4a/4] [c'/4a/4][c'/4a/4][c'/4a/4][c'/4a/4][c'/4a/4][c'/4a/4][c'/4a/4][c'/4a/4] |
 [c'4a4] [f'/4d'/4][f'/4d'/4][e'/4d'/4][_e'/4_d'/4][_e'/4c'/4][_e'/4c'/4][_e'/4c'/4][_e'/4c'/4] |
 "Dm"[b/4g/4][=b/4_a/4][c'/4=a/4][c'/4a/4][c'/4a/4][c'/4a/4][c'/4a/4][c'/4a/4] [c'/4a/4][c'/4a/4][c'/4a/4][c'/4a/4][c'/4a/4][c'/4a/4][c'/a/] [f'/4d'/4][f'/4d'/4][e'/4d'/4][_e'/4_d'/4][_e'/4c'/4][_e'/4c'/4][_e'/4c'/4][_e'/4c'/4] |
 "Gm"[b/4g/4][b/4g/4][b/4g/4][b/4g/4][b/4g/4][b/4g/4][b/4g/4][b/4g/4] [b/4g/4][b/4g/4][b/4g/4][b/4g/4][b/4g/4][b/4g/4][b/4g/4][b/4g/4] [bg][bg] |
 "Dm"[_a3f3][_af] (3g/_a/g/[fd] | A/4A/4A/4A/4A/4A/4A/4A/4 AA (3DGA | [f/4d/4][f/4d/4][f/4d/4][f/4d/4][f/4d/4][f/4d/4][f/4d/4][f/4d/4] [fd][fd] (3_agf |
 "A"[g/4e/4][g/4e/4][g/4e/4][g/4e/4][g/4e/4][g/4e/4][g/4e/4][g/4e/4] [ge][fd] (3_agf |
 "Dm"[f/4d/4][f/4d/4][f/4d/4][f/4d/4][f/4d/4][f/4d/4][f/4d/4][f/4d/4] [f/4d/4][f/4d/4][f/4d/4][f/4d/4][f/4d/4][f/4d/4][f/4d/4][f/4d/4]
 [f/4d/4][f/4d/4][f/4d/4][f/4d/4][f/4d/4][f/4d/4][f/4d/4][f/4d/4] |
 [f/4d/4][f/4d/4][f/4d/4][f/4d/4][f/4d/4][f/4d/4][f/4d/4][f/4d/4] [f4d4] ||

"Interlude (No chords)" _a/g/f/_a/ g/f/_a/g/ f/_a/g/f/ | _a/g/f/z/ _e/d/c/_e/ d/c/_e/d/ |
 c/_e/d/c/ _e/d/c/z/ F/=E/D/F/ | E/D/F/E/ D/F/E/D/ F/E/D/z/ | A,_D =D2 [cA][cA] |

|: "Part D""D"[a/4_g/4][a/4_g/4][a/4_g/4][a/4_g/4][a/4_g/4][a/4_g/4][a/4_g/4][a/4_g/4] [a/4_g/4][a/4_g/4][a/4_g/4][a/4_g/4][a/4_g/4][a/4_g/4][a/4_g/4][a/4_g/4] [a_g][a_g] |
 "C"[g/4e/4][g/4e/4][g/4e/4][g/4e/4][g/4e/4][g/4e/4][g/4e/4][g/4e/4] [g/4e/4][g/4e/4][g/4e/4][g/4e/4][g/4e/4][g/4e/4][g/4e/4][g/4e/4] [ge][ge] |
 "D"[a/4_g/4][a/4_g/4][a/4_g/4][a/4_g/4][a/4_g/4][a/4_g/4][a/4_g/4][a/4_g/4] [a/4_g/4][a/4_g/4][a/4_g/4][a/4_g/4][a/4_g/4][a/4_g/4][a/4_g/4][a/4_g/4] [a_g][a_g] |
 "Dm"[c/4A/4][c/4A/4][c/4A/4][c/4A/4][c/4A/4][c/4A/4][c/4A/4][c/4A/4] [cA][cA] [cA][cA] |
 "D"[a/4_g/4][a/4_g/4][a/4_g/4][a/4_g/4][a/4_g/4][a/4_g/4][a/4_g/4][a/4_g/4] [a/4_g/4][a/4_g/4][a/4_g/4][a/4_g/4][a/4_g/4][a/4_g/4][a/4_g/4][a/4_g/4] [a_g][a_g] |
 "C"[g/4e/4][g/4e/4][g/4e/4][g/4e/4][g/4e/4][g/4e/4][g/4e/4][g/4e/4] [g/4e/4][g/4e/4][g/4e/4][g/4e/4][g/4e/4][g/4e/4][g/4e/4][g/4e/4] [ge][ge] |
 "Dm"D2 [c/4A/4][c/4A/4][c/4A/4][c/4A/4][c/4A/4][c/4A/4][c/4A/4][c/4A/4] [cA][cA] |
 [c/4A/4][c/4A/4][c/4A/4][c/4A/4][c/4A/4][c/4A/4][c/4A/4][c/4A/4] [c/4A/4][c/4A/4][c/4A/4][c/4A/4][cA] [cA][cA] |
 "D"[a/4_g/4][a/4_g/4][a/4_g/4][a/4_g/4][a/4_g/4][a/4_g/4][a/4_g/4][a/4_g/4] [a/4_g/4][a/4_g/4][a/4_g/4][a/4_g/4][a/4_g/4][a/4_g/4][a/4_g/4][a/4_g/4] [a_g][a_g] |
 "C"[g/4e/4][g/4e/4][g/4e/4][g/4e/4][g/4e/4][g/4e/4][g/4e/4][g/4e/4] [g/4e/4][g/4e/4][g/4e/4][g/4e/4][g/4e/4][g/4e/4][g/4e/4][g/4e/4] [ge][ge] |
 "Dm"[f/4d/4][f/4d/4][f/4d/4][f/4d/4][f/4d/4][f/4d/4][f/4d/4][f/4d/4] [fd][fd] AD |
 "Gm"G/4G/4G/4G/4G/4G/4G/4G/4 G/4G/4G/4G/4G A,_D |
  "Dm"[D/4D/4][D/4D/4][D/4D/4][D/4D/4][D/4D/4][D/4D/4][D/4D/4][D/4D/4] (3EFE (3FED |
 "A"[A/4E/4][A/4E/4][A/4E/4][A/4E/4][A/4E/4][A/4E/4][A/4E/4][A/4E/4] (3EFE (3FED | "Dm"[D/4D/4][D/4D/4][D/4D/4][D/4D/4][D/4D/4][D/4D/4][D/4D/4][D/4D/4] [DD][DD] [DD][DD] |
|1 [D2D2] [D2D2] [cA][cA] :|2 [D2D2] [DD]A, A,C ||

 "Part A""Dm"[D/4D/4][D/4D/4][D/4D/4][D/4D/4][D/4D/4][D/4D/4][D/4D/4][D/4D/4] [DD][DD] (3DCA, |
 "F"E/4E/4F/4F/4F/4F/4F/4F/4 FF (3FGF | "C"E/4E/4E/4E/4E/4E/4E/4E/4 EF (3E/F/E/D |
 "Dm"D/4D/4D/4D/4D/4D/4D/4D/4 DD A,C | [D/4D/4][D/4D/4][D/4D/4][D/4D/4][D/4D/4][D/4D/4][D/4D/4][D/4D/4] [DD][DD] (3DCA, |
 "G"[d/4=B/4][d/4=B/4][d/4=B/4][d/4=B/4][d/4=B/4][d/4=B/4][d/4=B/4][d/4=B/4] [d/4=B/4][d/4=B/4][d/4=B/4][d/4=B/4][d/4=B/4][d/4=B/4][d/4=B/4][d/4=B/4] [d=B][d=B] |
 "A"[e/4_d/4A/4][e/4_d/4A/4][e/4_d/4A/4][e/4_d/4A/4][e/4_d/4A/4][e/4_d/4A/4][e/4_d/4A/4][e/4_d/4A/4] [e/4_d/4A/4][e/4_d/4A/4][e/4_d/4A/4][e/4_d/4A/4][e/4_d/4A/4][e/4_d/4A/4][e/4_d/4A/4][e/4_d/4A/4] [e_dA][e_dA] |
 "A"[e/4_d/4A/4][e/4_d/4A/4][e/4_d/4A/4][e/4_d/4A/4][e/4_d/4A/4][e/4_d/4A/4][e/4_d/4A/4][e/4_d/4A/4] [e_dA][e_dA] A,C |
 "Dm"[D/4D/4][D/4D/4][D/4D/4][D/4D/4][D/4D/4][D/4D/4][D/4D/4][D/4D/4] [DD][DD] (3DCA, |
 "F"E/4E/4F/4F/4F/4F/4F/4F/4 FF (3FGF | "C"E/4E/4E/4E/4E/4E/4E/4E/4 EF (3E/F/E/D |
 "Dm"D/4D/4D/4D/4D/4D/4D/4D/4 DD A,_D | D/4D/4D/4D/4D/4D/4D/4D/4 DD (3FED | "A"E/4E/4E/4E/4E/4E/4E/4E/4 EE (3FED |
 "Dm"[D/4D/4][D/4D/4][D/4D/4][D/4D/4][D/4D/4][D/4D/4][D/4D/4][D/4D/4] [D/4D/4][D/4D/4][D/4D/4][D/4D/4][D/4D/4][D/4D/4][D/4D/4][D/4D/4] [DD][DD] |
 [D/4D/4][D/4D/4][D/4D/4][D/4D/4][D/4D/4][D/4D/4][D/4D/4][D/4D/4]
 [D/4D/4][D/4D/4][D/4D/4][D/4D/4][D/4D/4][D/4D/4][D/4D/4][D/4D/4] [DD][DD] |

 "Part B""G"[d/4=B/4][d/4=B/4][d/4=B/4][d/4=B/4][d/4=B/4][d/4=B/4][d/4=B/4][d/4=B/4] [d/4=B/4][d/4=B/4][d/4=B/4][d/4=B/4][d/4=B/4][d/4=B/4][d/4=B/4][d/4=B/4] [d=B][d=B] |
 "A"[e/4_d/4A/4][e/4_d/4A/4][e/4_d/4A/4][e/4_d/4A/4][e/4_d/4A/4][e/4_d/4A/4][e/4_d/4A/4][e/4_d/4A/4] [e/4_d/4A/4][e/4_d/4A/4][e/4_d/4A/4][e/4_d/4A/4][e/4_d/4A/4][e/4_d/4A/4][e/4_d/4A/4][e/4_d/4A/4] [e_dA][e_dA] |
 "Dm"[f/4d/4][f/4d/4][f/4d/4][f/4d/4][f/4d/4][f/4d/4][f/4d/4][f/4d/4] [f/4d/4][f/4d/4][f/4d/4][f/4d/4][f/4d/4][f/4d/4][f/4d/4][f/4d/4] [fd][fd] |
 [f/4d/4][f/4d/4][f/4d/4][f/4d/4][f/4d/4][f/4d/4][f/4d/4][f/4d/4] [fd][fd] DD | "G"[d/4=B/4][d/4=B/4][d/4=B/4][d/4=B/4][d/4=B/4][d/4=B/4][d/4=B/4][d/4=B/4] [d/4=B/4][d/4=B/4][d/4=B/4][d/4=B/4][d/4=B/4][d/4=B/4][d/4=B/4][d/4=B/4] [d=B][d=B] |
 "A"[e/4_d/4A/4][e/4_d/4A/4][e/4_d/4A/4][e/4_d/4A/4][e/4_d/4A/4][e/4_d/4A/4][e/4_d/4A/4][e/4_d/4A/4] [e/4_d/4A/4][e/4_d/4A/4][e/4_d/4A/4][e/4_d/4A/4][e/4_d/4A/4][e/4_d/4A/4][e/4_d/4A/4][e/4_d/4A/4] [e_dA][e_dA] |
 "Dm"[f/4d/4][f/4d/4][f/4d/4][f/4d/4][f/4d/4][f/4d/4][f/4d/4][f/4d/4] [f/4d/4][f/4d/4][f/4d/4][f/4d/4][f/4d/4][f/4d/4][f/4d/4][f/4d/4] [fd][fd] |
 "Dm"[f/4d/4][f/4d/4][f/4d/4][f/4d/4][f/4d/4][f/4d/4][f/4d/4][f/4d/4] [f/4d/4][f/4d/4][f/4d/4][f/4d/4][f/4d/4][f/4d/4][f/4d/4][f/4d/4] [fd][fd] |
 "Gm"[c'/4a/4][c'/4a/4][c'/4a/4][c'/4a/4][c'/4a/4][c'/4a/4][c'/4a/4][c'/4a/4] [c'a][c'a] [c'/4a/4][c'/4a/4][_d'/4b/4][d'/4b/4][c'/4a/4][c'/4a/4][c'/4a/4][c'/4a/4] |
 [b/4g/4][b/4g/4][b/4g/4][b/4g/4][b/4g/4][b/4g/4][b/4g/4][b/4g/4] [bg][bg] [c'a][bg] |
 "Dm"[_a/4f/4][_a/4f/4][_a/4f/4][_a/4f/4][_a/4f/4][_a/4f/4][_a/4f/4][_a/4f/4] [_af][_af] [_a/4f/4][_a/4f/4][g/4e/4][g/4e/4][f/4d/4][f/4d/4][f/4d/4][f/4d/4] |
 [f/4d/4][f/4d/4][f/4d/4][f/4d/4][f/4d/4][f/4d/4][f/4d/4][f/4d/4] [fd]D (3DGA | [f/4d/4][f/4d/4][f/4d/4][f/4d/4][f/4d/4][f/4d/4][f/4d/4][f/4d/4] [fd][fd] (3_agf |
 "A"[g/4e/4][g/4e/4][g/4e/4][g/4e/4][g/4e/4][g/4e/4][g/4e/4][g/4e/4] [ge][fd] (3_agg |
 "Dm"[fd][_af] =B[fd] _B[fd] | [f/4d/4][f/4d/4][f/4d/4][f/4d/4][f/4d/4][f/4d/4][f/4d/4][f/4d/4] [f4d4D4] ||

"Harmonics" [f6D6F6] | [f6D6F6] | [f6D6F6] | [f6D6F6] | [A6D6] |

